symbols/web/dataset/materialsymbolssharp/dataset_grad200fill1_48px.svg

<svg xmlns="http://www.w3.org/2000/svg" height="48" width="48"><path d="M5.35 42.65V5.35H42.65V42.65ZM14 21.5H21.5V14H14ZM26.5 21.5H34V14H26.5ZM14 34H21.5V26.5H14ZM26.5 34H34V26.5H26.5Z"/></svg>

<svg xmlns="http://www.w3.org/2000/svg" height="48" width="48"><path d="M5.35 42.65V5.35h37.3v37.3ZM14 21.5h7.5V14H14Zm12.5 0H34V14h-7.5ZM14 34h7.5v-7.5H14Zm12.5 0H34v-7.5h-7.5Z"/></svg>
